;Generated with Cura_SteamEngine 15.05
;example only
; Default start code
M140 T0 S41
M104 T0 S41
M140 S60
M104 S230
G28 ; Home extruder
G1 Z4 F100
;M107 ; Turn off fan
G90 ; Absolute positioning
M82 ; Extruder in absolute mode
M140 T0 S230
M104 T0 S230

M190 S60
; Activate all used extruder
G92 E0 ; Reset extruder position
; Wait for all used extruders to reach temperature
M109 T0 S230
G1 Y40 x20 F4800
;Layer count: 14
;LAYER:0
M107
G0 F7200 X89.541 Y90.996 Z0.380
;TYPE:SKIRT
G1 F2700 X90.783 Y89.951 E0.08924
G1 X92.148 Y89.049 E0.17919
G1 X93.622 Y88.301 E0.27007
G1 X95.193 Y87.719 E0.36217
G1 X95.921 Y87.539 E0.40340
G1 X96.086 Y87.420 E0.41459
G1 X96.919 Y86.856 E0.46990
G1 X97.786 Y86.308 E0.52629
G1 X98.687 Y85.784 E0.58359
G1 X99.625 Y85.286 E0.64198
G1 X100.605 Y84.820 E0.70164
G1 X101.624 Y84.396 E0.76232
G1 X102.680 Y84.017 E0.82400
G1 X103.782 Y83.689 E0.88722
G1 X104.922 Y83.422 E0.95159
G1 X106.100 Y83.220 E1.01730
G1 X109.002 Y82.908 E1.17777
G1 X115.666 Y89.496 E1.69296
G1 X112.161 Y93.011 E1.96587
G1 X112.519 Y93.492 E1.99884
G1 X113.331 Y94.885 E2.08749
G1 X113.983 Y96.371 E2.17670
G1 X114.461 Y97.938 E2.26677
G1 X114.756 Y99.567 E2.35779
G1 X114.857 Y101.254 E2.45071
G1 X114.730 Y103.213 E2.55864
G1 X114.354 Y105.107 E2.66480
G1 X113.739 Y106.906 E2.76933
G1 X112.902 Y108.585 E2.87247
G1 X111.855 Y110.129 E2.97503
G1 X110.618 Y111.512 E3.07705
G1 X109.212 Y112.722 E3.17903
G1 X107.647 Y113.742 E3.28174
G1 X105.950 Y114.556 E3.38521
G1 X104.137 Y115.152 E3.49014
G1 X102.232 Y115.515 E3.59676
G1 X100.268 Y115.637 E3.70494
G1 X98.212 Y115.524 E3.81815
G1 X96.246 Y115.189 E3.92780
G1 X94.373 Y114.632 E4.03523
G1 X92.613 Y113.857 E4.14096
G1 X90.985 Y112.869 E4.24566
G1 X89.515 Y111.679 E4.34964
G1 X88.226 Y110.300 E4.45342
G1 X87.138 Y108.749 E4.55758
G1 X86.274 Y107.048 E4.66247
G1 X85.648 Y105.226 E4.76839
G1 X85.268 Y103.304 E4.87611
G1 X85.141 Y101.317 E4.98557
G1 X85.240 Y99.609 E5.07964
G1 X85.528 Y97.962 E5.17156
G1 X86.001 Y96.382 E5.26224
G1 X86.647 Y94.880 E5.35213
G1 X87.461 Y93.472 E5.44154
G1 X88.429 Y92.173 E5.53061
G1 X89.541 Y90.996 E5.61963
G0 F7200 X89.816 Y91.287
G1 F2700 X91.023 Y90.272 E5.70634
G1 X92.350 Y89.395 E5.79379
G1 X93.783 Y88.668 E5.88213
G1 X95.310 Y88.102 E5.97167
G1 X96.091 Y87.909 E6.01590
G1 X96.315 Y87.748 E6.03106
G1 X97.138 Y87.191 E6.08570
G1 X97.993 Y86.650 E6.14133
G1 X98.882 Y86.134 E6.19784
G1 X99.804 Y85.644 E6.25524
G1 X100.768 Y85.185 E6.31395
G1 X101.768 Y84.769 E6.37349
G1 X102.805 Y84.397 E6.43406
G1 X103.885 Y84.076 E6.49601
G1 X105.002 Y83.814 E6.55909
G1 X106.156 Y83.616 E6.62346
G1 X108.856 Y83.326 E6.77275
G1 X115.099 Y89.498 E7.25541
G1 X111.633 Y92.974 E7.52529
G1 X112.184 Y93.713 E7.57597
G1 X112.974 Y95.067 E7.66215
G1 X113.607 Y96.511 E7.74883
G1 X114.071 Y98.032 E7.83626
G1 X114.358 Y99.615 E7.92471
G1 X114.456 Y101.254 E8.01498
G1 X114.333 Y103.161 E8.12005
G1 X113.967 Y105.003 E8.22330
G1 X113.369 Y106.751 E8.32487
G1 X112.556 Y108.383 E8.42511
G1 X111.539 Y109.882 E8.52470
G1 X110.337 Y111.225 E8.62379
G1 X108.971 Y112.401 E8.72289
G1 X107.451 Y113.393 E8.82268
G1 X105.800 Y114.184 E8.92333
G1 X104.036 Y114.764 E9.02542
G1 X102.182 Y115.117 E9.12919
G1 X100.267 Y115.236 E9.23467
G1 X98.256 Y115.126 E9.34540
G1 X96.337 Y114.799 E9.45243
G1 X94.512 Y114.256 E9.55711
G1 X92.798 Y113.501 E9.66008
G1 X91.216 Y112.541 E9.76182
G1 X89.788 Y111.385 E9.86283
G1 X88.537 Y110.047 E9.96354
G1 X87.482 Y108.543 E10.06454
G1 X86.643 Y106.892 E10.16636
G1 X86.035 Y105.122 E10.26926
G1 X85.666 Y103.253 E10.37399
G1 X85.542 Y101.316 E10.48071
G1 X85.638 Y99.656 E10.57212
G1 X85.918 Y98.055 E10.66148
G1 X86.377 Y96.519 E10.74962
G1 X87.005 Y95.060 E10.83695
G1 X87.796 Y93.693 E10.92378
G1 X88.735 Y92.430 E11.01031
G1 X89.816 Y91.287 E11.09680
G1 F2400 E7.09680
G1 Z0.680
G0 F7200 X92.429 Y94.054
;TYPE:WALL-INNER
G1 Z0.380
G1 F2400 E11.09680
G1 F2700 X93.296 Y93.325 E11.15908
G1 X94.269 Y92.682 E11.22320
G1 X95.301 Y92.159 E11.28681
G1 X96.439 Y91.737 E11.35354
G1 X97.714 Y91.422 E11.42574
G1 X98.483 Y90.870 E11.47779
G1 X99.227 Y90.366 E11.52719
G1 X99.955 Y89.906 E11.57454
G1 X100.739 Y89.450 E11.62440
G1 X101.501 Y89.045 E11.67185
G1 X102.316 Y88.657 E11.72147
G1 X103.138 Y88.315 E11.77042
G1 X103.997 Y88.007 E11.82059
G1 X104.861 Y87.750 E11.87015
G1 X105.759 Y87.540 E11.92085
G1 X106.670 Y87.383 E11.97168
G1 X107.468 Y87.297 E12.01580
G1 X109.241 Y89.050 E12.15288
G1 X108.625 Y89.000 E12.18686
G1 X108.056 Y89.011 E12.21815
G1 X107.468 Y89.069 E12.25064
G1 X106.855 Y89.170 E12.28479
G1 X106.211 Y89.316 E12.32110
G1 X105.533 Y89.507 E12.35982
G1 X104.814 Y89.741 E12.40139
G1 X104.050 Y90.018 E12.44607
G1 X103.234 Y90.337 E12.49424
G1 X102.541 Y90.624 E12.53548
G1 X102.604 Y91.488 E12.58311
G1 X103.595 Y91.740 E12.63933
G1 X104.707 Y92.163 E12.70474
G1 X105.726 Y92.692 E12.76786
G1 X106.687 Y93.338 E12.83152
G1 X107.553 Y94.074 E12.89401
G1 X108.332 Y94.904 E12.95659
G1 X109.010 Y95.813 E13.01894
G1 X109.578 Y96.786 E13.08088
G1 X110.038 Y97.836 E13.14390
G1 X110.373 Y98.932 E13.20691
G1 X110.578 Y100.065 E13.27022
G1 X110.649 Y101.243 E13.33510
G1 X110.557 Y102.664 E13.41339
G1 X110.288 Y104.016 E13.48918
G1 X109.855 Y105.282 E13.56274
G1 X109.269 Y106.458 E13.63498
G1 X108.534 Y107.543 E13.70703
G1 X107.671 Y108.506 E13.77812
G1 X106.687 Y109.353 E13.84950
G1 X105.578 Y110.076 E13.92229
G1 X104.380 Y110.651 E13.99535
G1 X103.081 Y111.078 E14.07052
G1 X101.711 Y111.339 E14.14720
G1 X100.251 Y111.430 E14.22762
G1 X98.678 Y111.344 E14.31423
G1 X97.204 Y111.092 E14.39645
G1 X95.825 Y110.682 E14.47555
G1 X94.556 Y110.124 E14.55176
G1 X93.408 Y109.427 E14.62560
G1 X92.383 Y108.597 E14.69811
G1 X91.496 Y107.648 E14.76953
G1 X90.748 Y106.582 E14.84112
G1 X90.149 Y105.403 E14.91383
G1 X89.714 Y104.137 E14.98743
G1 X89.442 Y102.761 E15.06454
G1 X89.349 Y101.303 E15.14487
G1 X89.419 Y100.093 E15.21150
G1 X89.622 Y98.931 E15.27635
G1 X89.956 Y97.815 E15.34040
G1 X90.410 Y96.761 E15.40350
G1 X90.976 Y95.783 E15.46562
G1 X91.649 Y94.880 E15.52754
G1 X92.429 Y94.054 E15.59000
G0 F7200 X93.781 Y95.579
G1 F2700 X93.122 Y96.373 E15.64673
G1 X92.582 Y97.246 E15.70317
G1 X92.164 Y98.185 E15.75967
G1 X91.867 Y99.176 E15.81655
G1 X91.688 Y100.211 E15.87430
G1 X91.629 Y101.276 E15.93294
G1 X91.675 Y102.118 E15.97930
G1 X91.815 Y103.005 E16.02867
G1 X92.057 Y103.918 E16.08060
G1 X92.411 Y104.834 E16.13459
G1 X92.883 Y105.730 E16.19027
G1 X93.483 Y106.586 E16.24774
G1 X94.219 Y107.375 E16.30707
G1 X95.097 Y108.074 E16.36877
G1 X96.122 Y108.657 E16.43360
G1 X97.303 Y109.101 E16.50297
G1 X98.638 Y109.382 E16.57797
G1 X100.134 Y109.480 E16.66040
G1 X101.288 Y109.408 E16.72397
G1 X102.386 Y109.194 E16.78547
G1 X103.417 Y108.848 E16.84526
G1 X104.373 Y108.378 E16.90383
G1 X105.247 Y107.793 E16.96165
G1 X106.029 Y107.101 E17.01906
G1 X106.714 Y106.312 E17.07650
G1 X107.289 Y105.433 E17.13425
G1 X107.752 Y104.474 E17.19280
G1 X108.090 Y103.446 E17.25230
G1 X108.298 Y102.356 E17.31330
G1 X108.369 Y101.215 E17.37616
G1 X108.300 Y100.140 E17.43538
G1 X108.096 Y99.100 E17.49365
G1 X107.765 Y98.110 E17.55104
G1 X107.312 Y97.178 E17.60801
G1 X106.746 Y96.316 E17.66471
G1 X106.072 Y95.534 E17.72147
G1 X105.299 Y94.843 E17.77847
G1 X104.433 Y94.254 E17.83605
G1 X103.482 Y93.778 E17.89452
G1 X102.454 Y93.424 E17.95429
G1 X101.354 Y93.206 E18.01595
G1 X100.196 Y93.130 E18.07975
G1 X98.843 Y93.206 E18.15425
G1 X97.602 Y93.429 E18.22358
G1 X96.474 Y93.788 E18.28866
G1 X95.458 Y94.273 E18.35055
G1 X94.560 Y94.874 E18.40996
G1 X93.781 Y95.579 E18.46773
G0 F7200 X94.070 Y95.856
;TYPE:WALL-OUTER
G1 F2700 X93.447 Y96.607 E18.52137
G1 X92.937 Y97.433 E18.57474
G1 X92.540 Y98.324 E18.62837
G1 X92.257 Y99.268 E18.68256
G1 X92.086 Y100.256 E18.73768
G1 X92.030 Y101.276 E18.79385
G1 X92.073 Y102.076 E18.83789
G1 X92.207 Y102.922 E18.88498
G1 X92.438 Y103.794 E18.93458
G1 X92.776 Y104.668 E18.98610
G1 X93.225 Y105.521 E19.03910
G1 X93.794 Y106.333 E19.09361
G1 X94.491 Y107.080 E19.14978
G1 X95.322 Y107.741 E19.20816
G1 X96.293 Y108.294 E19.26959
G1 X97.415 Y108.716 E19.33550
G1 X98.693 Y108.985 E19.40730
G1 X100.135 Y109.079 E19.48675
G1 X101.237 Y109.011 E19.54745
G1 X102.283 Y108.807 E19.60604
G1 X103.264 Y108.477 E19.66295
G1 X104.173 Y108.031 E19.71861
G1 X105.002 Y107.476 E19.77346
G1 X105.744 Y106.819 E19.82795
G1 X106.394 Y106.070 E19.88247
G1 X106.940 Y105.236 E19.93728
G1 X107.380 Y104.324 E19.99295
G1 X107.702 Y103.345 E20.04961
G1 X107.901 Y102.306 E20.10777
G1 X107.968 Y101.216 E20.16781
G1 X107.903 Y100.191 E20.22428
G1 X107.709 Y99.203 E20.27964
G1 X107.394 Y98.261 E20.33425
G1 X106.963 Y97.376 E20.38837
G1 X106.426 Y96.557 E20.44221
G1 X105.786 Y95.815 E20.49608
G1 X105.052 Y95.159 E20.55020
G1 X104.230 Y94.600 E20.60486
G1 X103.327 Y94.147 E20.66040
G1 X102.349 Y93.811 E20.71725
G1 X101.302 Y93.603 E20.77594
G1 X100.194 Y93.531 E20.83699
G1 X98.890 Y93.604 E20.90879
G1 X97.699 Y93.818 E20.97532
G1 X96.621 Y94.161 E21.03752
G1 X95.657 Y94.622 E21.09626
G1 X94.807 Y95.190 E21.15247
G1 X94.070 Y95.856 E21.20708
G0 F7200 X93.841 Y95.665
G0 X92.361 Y93.981
G0 X92.149 Y93.767
G1 F2700 X93.062 Y93.000 E21.27264
G1 X94.065 Y92.337 E21.33874
G1 X95.137 Y91.793 E21.40484
G1 X96.319 Y91.355 E21.47414
G1 X97.543 Y91.052 E21.54346
G1 X98.258 Y90.539 E21.59185
G1 X99.002 Y90.035 E21.64125
G1 X99.754 Y89.560 E21.69015
G1 X100.531 Y89.108 E21.73957
G1 X101.329 Y88.684 E21.78926
G1 X102.153 Y88.292 E21.83942
G1 X103.001 Y87.939 E21.88992
G1 X103.859 Y87.631 E21.94004
G1 X104.756 Y87.364 E21.99150
G1 X105.684 Y87.147 E22.04389
G1 X106.623 Y86.986 E22.09627
G1 X107.614 Y86.879 E22.15107
G1 X110.280 Y89.515 E22.35720
G1 X110.163 Y89.633 E22.36633
G1 X109.644 Y89.509 E22.39567
G1 X109.025 Y89.425 E22.43002
G1 X108.616 Y89.400 E22.45254
G1 X108.079 Y89.410 E22.48207
G1 X107.520 Y89.466 E22.51296
G1 X106.932 Y89.563 E22.54572
G1 X106.310 Y89.704 E22.58079
G1 X105.649 Y89.890 E22.61854
G1 X104.944 Y90.119 E22.65930
G1 X104.191 Y90.392 E22.70333
G1 X103.383 Y90.708 E22.75103
G1 X102.961 Y90.883 E22.77615
G1 X102.982 Y91.171 E22.79202
G1 X103.720 Y91.359 E22.83389
G1 X104.869 Y91.797 E22.90150
G1 X105.931 Y92.348 E22.96728
G1 X106.931 Y93.020 E23.03352
G1 X107.831 Y93.786 E23.09849
G1 X108.642 Y94.649 E23.16360
G1 X109.342 Y95.589 E23.22804
G1 X109.941 Y96.616 E23.29340
G1 X110.413 Y97.692 E23.35800
G1 X110.759 Y98.825 E23.42313
G1 X110.976 Y100.020 E23.48991
G1 X111.049 Y101.245 E23.55738
G1 X110.954 Y102.722 E23.63875
G1 X110.677 Y104.118 E23.71700
G1 X110.225 Y105.436 E23.79360
G1 X109.615 Y106.661 E23.86884
G1 X108.851 Y107.789 E23.94374
G1 X107.953 Y108.791 E24.01772
G1 X106.926 Y109.675 E24.09222
G1 X105.775 Y110.426 E24.16778
G1 X104.532 Y111.022 E24.24356
G1 X103.181 Y111.466 E24.32175
G1 X101.763 Y111.736 E24.40111
G1 X100.254 Y111.830 E24.48423
G1 X98.633 Y111.741 E24.57349
G1 X97.114 Y111.482 E24.65821
G1 X95.685 Y111.057 E24.74017
G1 X94.372 Y110.479 E24.81905
G1 X93.174 Y109.752 E24.89609
G1 X92.113 Y108.894 E24.97111
G1 X91.184 Y107.900 E25.04591
G1 X90.403 Y106.785 E25.12076
G1 X89.781 Y105.563 E25.19614
G1 X89.325 Y104.236 E25.27329
G1 X89.045 Y102.818 E25.35275
G1 X88.949 Y101.305 E25.43610
G1 X89.022 Y100.044 E25.50555
G1 X89.232 Y98.840 E25.57274
G1 X89.579 Y97.681 E25.63926
G1 X90.051 Y96.585 E25.70486
G1 X90.642 Y95.562 E25.76982
G1 X91.343 Y94.621 E25.83433
G1 X92.149 Y93.767 E25.89889
G0 F7200 X92.642 Y94.056
;TYPE:SKIN
G1 F2700 X93.882 Y95.296 E25.99530
G0 F7200 X93.599 Y95.578
G1 F2700 X92.353 Y94.333 E26.09214
G0 F7200 X92.079 Y94.625
G1 F2700 X93.342 Y95.887 E26.19031
G0 F7200 X93.085 Y96.196
G1 F2700 X91.805 Y94.916 E26.28983
G0 F7200 X91.557 Y95.234
G1 F2700 X92.857 Y96.534 E26.39091
G0 F7200 X92.641 Y96.884
G1 F2700 X91.315 Y95.558 E26.49401
G0 F7200 X91.076 Y95.885
G1 F2700 X92.430 Y97.239 E26.59928
G0 F7200 X92.256 Y97.630
G1 F2700 X90.869 Y96.243 E26.70712
G0 F7200 X90.662 Y96.602
G1 F2700 X92.082 Y98.022 E26.81753
G0 F7200 X91.939 Y98.444
G1 F2700 X90.470 Y96.975 E26.93175
G0 F7200 X90.299 Y97.370
G1 F2700 X91.809 Y98.880 E27.04916
G0 F7200 X91.698 Y99.335
G1 F2700 X90.129 Y97.765 E27.17119
G0 F7200 X89.989 Y98.191
G1 F2700 X91.614 Y99.816 E27.29753
G0 F7200 X91.542 Y100.310
G1 F2700 X89.859 Y98.627 E27.42839
G0 F7200 X89.738 Y99.072
G1 F2700 X91.513 Y100.846 E27.56636
G0 F7200 X91.495 Y101.394
G1 F2700 X89.654 Y99.554 E27.70947
G0 F7200 X94.179 Y95.028
G1 F2700 X92.949 Y93.798 E27.80510
G0 F7200 X93.257 Y93.540
G1 F2700 X94.477 Y94.760 E27.89996
G0 F7200 X94.815 Y94.533
G1 F2700 X93.584 Y93.302 E27.99567
G0 F7200 X93.925 Y93.077
G1 F2700 X95.155 Y94.306 E28.09127
G0 F7200 X95.508 Y94.093
G1 F2700 X94.265 Y92.851 E28.18787
G0 F7200 X94.633 Y92.653
G1 F2700 X95.890 Y93.910 E28.28561
G0 F7200 X96.273 Y93.727
G1 F2700 X95.008 Y92.463 E28.38393
G0 F7200 X95.387 Y92.276
G1 F2700 X96.684 Y93.572 E28.48473
G0 F7200 X97.113 Y93.436
G1 F2700 X95.800 Y92.123 E28.58682
G0 F7200 X96.213 Y91.970
G1 F2700 X97.542 Y93.299 E28.69015
G0 F7200 X98.019 Y93.211
G1 F2700 X96.640 Y91.831 E28.79741
G0 F7200 X97.093 Y91.719
G1 F2700 X98.499 Y93.125 E28.90673
G0 F7200 X98.997 Y93.057
G1 F2700 X97.547 Y91.607 E29.01947
G0 F7200 X97.938 Y91.433
G1 F2700 X99.532 Y93.026 E29.14337
G0 F7200 X100.068 Y92.997
G1 F2700 X98.268 Y91.196 E29.28336
G0 F7200 X98.598 Y90.961
G1 F2700 X100.656 Y93.019 E29.44338
G0 F7200 X101.261 Y93.059
G1 F2700 X98.935 Y90.733 E29.62423
G0 F7200 X99.272 Y90.504
G1 F2700 X101.949 Y93.181 E29.83237
G0 F7200 X102.691 Y93.357
G1 F2700 X99.618 Y90.284 E30.07130
G0 F7200 X99.965 Y90.065
G1 F2700 X103.561 Y93.661 E30.35090
G0 F7200 X104.802 Y94.337
G1 F2700 X100.320 Y89.855 E30.69938
G0 F7200 X100.678 Y89.647
G1 F2700 X102.459 Y91.428 E30.83786
G0 F7200 X102.683 Y91.653
G1 F2700 X110.288 Y99.257 E31.42912
G0 F7200 X110.415 Y99.950
G1 F2700 X107.164 Y96.698 E31.68193
G0 F7200 X107.836 Y97.937
G1 F2700 X110.467 Y100.568 E31.88650
G0 F7200 X110.503 Y101.169
G1 F2700 X108.147 Y98.813 E32.06968
G0 F7200 X108.328 Y99.559
G1 F2700 X110.477 Y101.709 E32.23681
G0 F7200 X110.443 Y102.241
G1 F2700 X108.446 Y100.243 E32.39212
G0 F7200 X108.484 Y100.847
G1 F2700 X110.395 Y102.758 E32.54071
G0 F7200 X110.301 Y103.230
G1 F2700 X108.494 Y101.423 E32.68120
G0 F7200 X108.461 Y101.956
G1 F2700 X110.207 Y103.702 E32.81696
G0 F7200 X110.092 Y104.153
G1 F2700 X108.416 Y102.476 E32.94731
G0 F7200 X108.325 Y102.951
G1 F2700 X109.948 Y104.574 E33.07350
G0 F7200 X109.804 Y104.996
G1 F2700 X108.235 Y103.427 E33.19549
G0 F7200 X108.100 Y103.857
G1 F2700 X109.640 Y105.397 E33.31523
G0 F7200 X109.452 Y105.775
G1 F2700 X107.961 Y104.284 E33.43116
G0 F7200 X107.801 Y104.690
G1 F2700 X109.264 Y106.152 E33.54487
G0 F7200 X109.060 Y106.515
G1 F2700 X107.617 Y105.071 E33.65711
G0 F7200 X107.433 Y105.453
G1 F2700 X108.832 Y106.852 E33.76588
G0 F7200 X108.603 Y107.189
G1 F2700 X107.215 Y105.800 E33.87384
G0 F7200 X106.991 Y106.143
G1 F2700 X108.367 Y107.519 E33.98083
G0 F7200 X108.100 Y107.817
G1 F2700 X106.757 Y106.474 E34.08525
G0 F7200 X106.494 Y106.777
G1 F2700 X107.832 Y108.115 E34.18928
G0 F7200 X107.562 Y108.411
G1 F2700 X106.231 Y107.080 E34.29277
G0 F7200 X105.945 Y107.360
G1 F2700 X107.259 Y108.673 E34.39490
G0 F7200 X106.955 Y108.935
G1 F2700 X105.645 Y107.625 E34.49675
G0 F7200 X105.346 Y107.891
G1 F2700 X106.651 Y109.197 E34.59826
G0 F7200 X106.314 Y109.426
G1 F2700 X105.009 Y108.120 E34.69976
G0 F7200 X104.670 Y108.347
G1 F2700 X105.972 Y109.649 E34.80100
G0 F7200 X105.629 Y109.872
G1 F2700 X104.318 Y108.560 E34.90297
G0 F7200 X103.939 Y108.747
